icon-themes/breeze_svg/cmd/sc_wrapideal.svg

<svg xmlns="http://www.w3.org/2000/svg" viewBox="0 0 16 16">
 <path 
     style="fill:#27ae60" 
     d="M 4 4 L 4 12 L 12 12 L 12 4 L 4 4 z "
     />
 <path 
     style="fill:#4d4d4d" 
     d="M 2 2 L 2 3 L 14 3 L 14 2 L 2 2 z M 2 5 L 2 6 L 3 6 L 3 5 L 2 5 z M 13 5 L 13 6 L 14 6 L 14 5 L 13 5 z M 2 7.5 L 2 8.5 L 3 8.5 L 3 7.5 L 2 7.5 z M 13 7.5 L 13 8.5 L 14 8.5 L 14 7.5 L 13 7.5 z M 2 10 L 2 11 L 3 11 L 3 10 L 2 10 z M 13 10 L 13 11 L 14 11 L 14 10 L 13 10 z M 2 13 L 2 14 L 14 14 L 14 13 L 2 13 z "
     />
 </svg>

<?xml version="1.0" encoding="UTF-8" standalone="no"?>
<!-- Created with Inkscape (http://www.inkscape.org/) -->

<svg
   xmlns:dc="http://purl.org/dc/elements/1.1/"
   xmlns:cc="http://creativecommons.org/ns#"
   xmlns:rdf="http://www.w3.org/1999/02/22-rdf-syntax-ns#"
   xmlns:svg="http://www.w3.org/2000/svg"
   xmlns="http://www.w3.org/2000/svg"
   xmlns:sodipodi="http://sodipodi.sourceforge.net/DTD/sodipodi-0.dtd"
   xmlns:inkscape="http://www.inkscape.org/namespaces/inkscape"
   width="16"
   height="16"
   id="svg3049"
   version="1.1"
   inkscape:version="0.48.4 r9939"
   sodipodi:docname="lc_wrapright.svg"
   inkscape:export-filename="/home/uri/.kde/share/icons/NITRUX-KDE/16x16/actions/view-right-new.png"
   inkscape:export-xdpi="30"
   inkscape:export-ydpi="30">
  <defs
     id="defs3051" />
  <sodipodi:namedview
     id="base"
     pagecolor="#ffffff"
     bordercolor="#666666"
     borderopacity="1.0"
     inkscape:pageopacity="0.0"
     inkscape:pageshadow="2"
     inkscape:zoom="48.822612"
     inkscape:cx="7.4915405"
     inkscape:cy="7.2942564"
     inkscape:document-units="px"
     inkscape:current-layer="layer1"
     showgrid="true"
     fit-margin-top="0"
     fit-margin-left="0"
     fit-margin-right="0"
     fit-margin-bottom="0"
     inkscape:window-width="1868"
     inkscape:window-height="1060"
     inkscape:window-x="50"
     inkscape:window-y="-3"
     inkscape:window-maximized="1"
     inkscape:showpageshadow="false"
     borderlayer="true"
     inkscape:snap-bbox="true"
     inkscape:snap-global="true">
    <inkscape:grid
       type="xygrid"
       id="grid4085" />
    <sodipodi:guide
       position="2.0000044,14.00003"
       orientation="12,0"
       id="guide4075" />
    <sodipodi:guide
       position="2.0000044,2.0000296"
       orientation="0,12"
       id="guide4077" />
    <sodipodi:guide
       position="14.000004,2.0000296"
       orientation="-12,0"
       id="guide4079" />
    <sodipodi:guide
       position="14.000004,14.00003"
       orientation="0,-12"
       id="guide4081" />
  </sodipodi:namedview>
  <metadata
     id="metadata3054">
    <rdf:RDF>
      <cc:Work
         rdf:about="">
        <dc:format>image/svg+xml</dc:format>
        <dc:type
           rdf:resource="http://purl.org/dc/dcmitype/StillImage" />
        <dc:title></dc:title>
      </cc:Work>
    </rdf:RDF>
  </metadata>
  <g
     inkscape:label="Capa 1"
     inkscape:groupmode="layer"
     id="layer1"
     transform="translate(-421.71429,-531.79074)">
    <g
       id="layer1-0"
       inkscape:label="Capa 1"
       transform="translate(4.4e-6,0)">
      <rect
         transform="matrix(-1.1242998e-6,1,-1,1.1242998e-6,0,0)"
         y="-433.7149"
         x="535.79126"
         height="8.0000038"
         width="8.0000038"
         id="rect3841-2"
         style="color:#000000;fill:#27ae60;fill-opacity:1;fill-rule:nonzero;stroke:none;stroke-width:2;marker:none;visibility:visible;display:inline;overflow:visible;enable-background:accumulate" />
      <path
         id="rect3813-1"
         transform="translate(421.71429,531.79074)"
         d="M 2,2 2,3 14,3 14,2 2,2 z M 2,5 2,6 3,6 3,5 2,5 z m 11,0 0,1 1,0 0,-1 -1,0 z m -11,2.5 0,1 1,0 0,-1 -1,0 z m 11,0 0,1 1,0 0,-1 -1,0 z M 2,10 l 0,1 1,0 0,-1 -1,0 z m 11,0 0,1 1,0 0,-1 -1,0 z m -11,3 0,1 12,0 0,-1 -12,0 z"
         style="color:#000000;fill:#4d4d4d;fill-opacity:1;fill-rule:nonzero;stroke:none;stroke-width:2;marker:none;visibility:visible;display:inline;overflow:visible;enable-background:accumulate"
         inkscape:connector-curvature="0" />
    </g>
  </g>
</svg>
